assets/refined-version.svg

<svg width="191" height="29" viewBox="0 0 191 29" fill="none" xmlns="http://www.w3.org/2000/svg">
<g clip-path="url(#clip0_2188_3190)">
<path d="M19.8898 5.62549H13.2339C13.1176 5.62549 13.0232 5.71889 13.0232 5.83399V24.9201C13.0232 27.0976 14.8235 28.8792 17.0238 28.8792H19.8898C22.0901 28.8792 23.8904 27.0976 23.8904 24.9201V9.58458C23.8904 7.40713 22.0901 5.62549 19.8898 5.62549Z" fill="#429488"/>
<path d="M32.2726 0H25.6167C25.5004 0 25.406 0.0933986 25.406 0.208506V24.9203C25.406 27.0977 27.2063 28.8793 29.4066 28.8793H32.2726C34.4729 28.8793 36.2732 27.0977 36.2732 24.9203V3.95909C36.2732 1.78164 34.4729 0 32.2726 0Z" fill="#429488"/>
<path d="M7.44791 12.3765H0.791991C0.675677 12.3765 0.581299 12.4699 0.581299 12.585V24.9201C0.581299 27.0976 2.38162 28.8792 4.58189 28.8792H7.44791C9.64819 28.8792 11.4485 27.0976 11.4485 24.9201V16.3356C11.4485 14.1581 9.64819 12.3765 7.44791 12.3765Z" fill="#6AB4AC"/>
<path d="M1.88677 0H0.791991C0.675677 0 0.581299 0.0933986 0.581299 0.208506V1.10766C0.581299 3.29419 2.37243 5.06675 4.58189 5.06675H5.67667C5.79299 5.06675 5.88737 4.97335 5.88737 4.85824V3.95909C5.88686 1.77255 4.09623 0 1.88677 0Z" fill="#6AB4AC"/>
<path d="M59.601 7.95605C62.4175 7.95605 64.2428 9.77001 64.2428 13.1616V22.4005C64.2428 22.8503 63.9893 23.1008 63.5352 23.1008H61.1064C60.6519 23.1008 60.3988 22.8498 60.3988 22.4005V13.4489C60.3988 11.9818 59.5198 11.48 58.499 11.48C57.4782 11.48 56.2937 12.0479 56.2937 13.9724V22.4005C56.2937 22.8503 56.0401 23.1008 55.5861 23.1008H53.1573C52.7027 23.1008 52.4492 22.8498 52.4492 22.4005V13.4489C52.4492 11.9818 51.5702 11.48 50.5494 11.48C49.5286 11.48 48.344 12.0479 48.344 13.9724V22.4005C48.344 22.8503 48.0905 23.1008 47.6359 23.1008H45.2071C44.7525 23.1008 44.4995 22.8498 44.4995 22.4005V9.05462C44.4995 8.6048 44.7531 8.35439 45.2071 8.35439H47.6359C48.0905 8.35439 48.344 8.6053 48.344 9.05462V9.79323C49.1505 8.59672 50.4132 7.95605 51.913 7.95605C53.4128 7.95605 54.7423 8.62247 55.5111 9.90228C56.5191 8.63559 57.8603 7.95605 59.602 7.95605H59.601Z" fill="#3A3A3A"/>
<path d="M90.4142 7.95605C93.1859 7.95605 95.2571 10.0648 95.2571 13.6781V22.401C95.2571 22.8509 95.0035 23.1013 94.549 23.1013H92.1202C91.6656 23.1013 91.4126 22.8503 91.4126 22.401V13.9659C91.4126 12.2771 90.3994 11.481 89.0506 11.481C87.538 11.481 86.3611 12.3438 86.3611 14.5631V22.401C86.3611 22.8509 86.1075 23.1013 85.6535 23.1013H83.2247C82.7701 23.1013 82.5166 22.8503 82.5166 22.401V9.05462C82.5166 8.6048 82.7701 8.35439 83.2247 8.35439H85.6535C86.1081 8.35439 86.3611 8.6053 86.3611 9.05462V9.86997C87.1957 8.62247 88.5619 7.95605 90.4147 7.95605H90.4142Z" fill="#3A3A3A"/>
<path d="M112.638 15.7425C112.638 16.0595 112.616 16.3544 112.593 16.6492C112.541 17.099 112.258 17.2979 111.833 17.2979H101.298C101.82 19.3936 103.429 20.3508 105.336 20.3508C106.461 20.3508 107.467 19.9085 108.056 19.2744C108.324 19.0311 108.555 18.8837 108.928 18.8837L111.312 18.8615C111.826 18.8615 112.109 19.1861 111.893 19.6284C110.768 22.1133 108.324 23.4996 105.284 23.4996C100.434 23.4996 97.2966 20.1372 97.2966 15.7278C97.2966 11.3184 100.508 7.95605 105.194 7.95605C109.598 7.95605 112.638 11.3921 112.638 15.7425H112.638ZM108.796 14.3046C108.352 12.1969 106.785 11.3699 105.173 11.3699C103.134 11.3699 101.739 12.4579 101.282 14.3046H108.797H108.796Z" fill="#3A3A3A"/>
<path d="M123.811 8.35402H126.442C126.948 8.35402 127.202 8.64179 127.03 9.14311L120.451 28.4398C120.332 28.8305 120.026 29.0002 119.632 29.0002H117.001C116.495 29.0002 116.241 28.7124 116.413 28.2111L118.231 22.8949L112.859 9.16533C112.68 8.68622 112.904 8.35402 113.417 8.35402H116.04C116.435 8.35402 116.696 8.53829 116.837 8.90684L120.153 17.6368L123.014 8.93612C123.133 8.54536 123.416 8.35352 123.811 8.35352V8.35402Z" fill="#3A3A3A"/>
<path d="M143.676 7.95605C146.493 7.95605 148.318 9.77001 148.318 13.1616V22.4005C148.318 22.8503 148.065 23.1008 147.611 23.1008H145.182C144.727 23.1008 144.474 22.8498 144.474 22.4005V13.4489C144.474 11.9818 143.595 11.48 142.574 11.48C141.554 11.48 140.369 12.0479 140.369 13.9724V22.4005C140.369 22.8503 140.116 23.1008 139.662 23.1008H137.233C136.778 23.1008 136.525 22.8498 136.525 22.4005V13.4489C136.525 11.9818 135.646 11.48 134.625 11.48C133.604 11.48 132.419 12.0479 132.419 13.9724V22.4005C132.419 22.8503 132.166 23.1008 131.711 23.1008H129.283C128.828 23.1008 128.575 22.8498 128.575 22.4005V9.05462C128.575 8.6048 128.828 8.35439 129.283 8.35439H131.711C132.166 8.35439 132.419 8.6053 132.419 9.05462V9.79323C133.226 8.59672 134.489 7.95605 135.988 7.95605C137.488 7.95605 138.818 8.62247 139.587 9.90228C140.595 8.63559 141.936 7.95605 143.677 7.95605H143.676Z" fill="#3A3A3A"/>
<path d="M165.732 15.7425C165.732 16.0595 165.71 16.3544 165.687 16.6492C165.635 17.099 165.352 17.2979 164.927 17.2979H154.392C154.914 19.3936 156.523 20.3508 158.43 20.3508C159.555 20.3508 160.561 19.9085 161.15 19.2744C161.418 19.0311 161.649 18.8837 162.022 18.8837L164.406 18.8615C164.92 18.8615 165.203 19.1861 164.987 19.6284C163.862 22.1133 161.418 23.4996 158.378 23.4996C153.528 23.4996 150.391 20.1372 150.391 15.7278C150.391 11.3184 153.602 7.95605 158.288 7.95605C162.692 7.95605 165.732 11.3921 165.732 15.7425H165.732ZM161.89 14.3046C161.446 12.1969 159.879 11.3699 158.267 11.3699C156.228 11.3699 154.833 12.4579 154.376 14.3046H161.891H161.89Z" fill="#3A3A3A"/>
<path d="M175.855 7.95605C178.627 7.95605 180.698 10.0648 180.698 13.6781V22.401C180.698 22.8509 180.445 23.1013 179.991 23.1013H177.562C177.107 23.1013 176.854 22.8503 176.854 22.401V13.9659C176.854 12.2771 175.841 11.481 174.492 11.481C172.98 11.481 171.803 12.3438 171.803 14.5631V22.401C171.803 22.8509 171.549 23.1013 171.095 23.1013H168.666C168.212 23.1013 167.958 22.8503 167.958 22.401V9.05462C167.958 8.6048 168.212 8.35439 168.666 8.35439H171.095C171.55 8.35439 171.803 8.6053 171.803 9.05462V9.86997C172.637 8.62247 174.004 7.95605 175.856 7.95605H175.855Z" fill="#3A3A3A"/>
<path d="M191 9.05439V11.3106C191 11.7604 190.746 12.0108 190.292 12.0108H188.437V22.4003C188.437 22.8501 188.183 23.1005 187.729 23.1005H185.3C184.846 23.1005 184.592 22.8496 184.592 22.4003V12.0108H182.73C182.275 12.0108 182.022 11.7599 182.022 11.3106V9.05439C182.022 8.60456 182.276 8.35415 182.73 8.35415H184.592V4.33549C184.592 3.88566 184.846 3.63525 185.3 3.63525H187.729C188.184 3.63525 188.437 3.88617 188.437 4.33549V8.35415H190.292C190.747 8.35415 191 8.60507 191 9.05439Z" fill="#3A3A3A"/>
<path d="M69.7813 9.47607H67.0918C66.8061 9.47607 66.5745 9.70528 66.5745 9.988V12.1962C66.5745 17.5669 70.974 21.9208 76.401 21.9208H79.0905C79.3762 21.9208 79.6078 21.6916 79.6078 21.4089V19.2006C79.6078 13.83 75.2082 9.47607 69.7813 9.47607Z" fill="#429488"/>
</g>
<defs>
<clipPath id="clip0_2188_3190">
<rect width="191" height="29" fill="white"/>
</clipPath>
</defs>
</svg>

<?xml version="1.0" encoding="utf-8"?>
<!-- Generator: Adobe Illustrator 28.0.0, SVG Export Plug-In . SVG Version: 6.00 Build 0)  -->
<svg version="1.1" id="Layer_1" xmlns="http://www.w3.org/2000/svg" xmlns:xlink="http://www.w3.org/1999/xlink" x="0px" y="0px"
	 viewBox="0 0 191 29" style="enable-background:new 0 0 191 29;" xml:space="preserve">
<style type="text/css">
	.st0{fill:#429488;}
	.st1{fill:#6AB4AC;}
	.st2{fill:#3A3A3A;}
</style>
<path class="st0" d="M19.9,5.6h-6.7c-0.1,0-0.2,0.1-0.2,0.2v19.1c0,2.2,1.8,4,4,4h2.9c2.2,0,4-1.8,4-4V9.6
	C23.9,7.4,22.1,5.6,19.9,5.6z"/>
<path class="st0" d="M32.3,0h-6.7c-0.1,0-0.2,0.1-0.2,0.2v24.7c0,2.2,1.8,4,4,4h2.9c2.2,0,4-1.8,4-4V4C36.3,1.8,34.5,0,32.3,0z"/>
<path class="st1" d="M7.4,12.4H0.8c-0.1,0-0.2,0.1-0.2,0.2v12.3c0,2.2,1.8,4,4,4h2.9c2.2,0,4-1.8,4-4v-8.6
	C11.4,14.2,9.6,12.4,7.4,12.4z"/>
<path class="st1" d="M1.9,0H0.8C0.7,0,0.6,0.1,0.6,0.2v0.9c0,2.2,1.8,4,4,4h1.1c0.1,0,0.2-0.1,0.2-0.2V4C5.9,1.8,4.1,0,1.9,0z"/>
<path class="st2" d="M59.6,8c2.8,0,4.6,1.8,4.6,5.2v9.2c0,0.4-0.3,0.7-0.7,0.7h-2.4c-0.5,0-0.7-0.3-0.7-0.7v-9c0-1.5-0.9-2-1.9-2
	c-1,0-2.2,0.6-2.2,2.5v8.4c0,0.4-0.3,0.7-0.7,0.7h-2.4c-0.5,0-0.7-0.3-0.7-0.7v-9c0-1.5-0.9-2-1.9-2S48.3,12,48.3,14v8.4
	c0,0.4-0.3,0.7-0.7,0.7h-2.4c-0.5,0-0.7-0.3-0.7-0.7V9.1c0-0.4,0.3-0.7,0.7-0.7h2.4c0.5,0,0.7,0.3,0.7,0.7v0.7
	C49.2,8.6,50.4,8,51.9,8c1.5,0,2.8,0.7,3.6,1.9C56.5,8.6,57.9,8,59.6,8L59.6,8z"/>
<path class="st2" d="M59.6,8c2.8,0,4.6,1.8,4.6,5.2v9.2c0,0.4-0.3,0.7-0.7,0.7h-2.4c-0.5,0-0.7-0.3-0.7-0.7v-9c0-1.5-0.9-2-1.9-2
	c-1,0-2.2,0.6-2.2,2.5v8.4c0,0.4-0.3,0.7-0.7,0.7h-2.4c-0.5,0-0.7-0.3-0.7-0.7v-9c0-1.5-0.9-2-1.9-2S48.3,12,48.3,14v8.4
	c0,0.4-0.3,0.7-0.7,0.7h-2.4c-0.5,0-0.7-0.3-0.7-0.7V9.1c0-0.4,0.3-0.7,0.7-0.7h2.4c0.5,0,0.7,0.3,0.7,0.7v0.7
	C49.2,8.6,50.4,8,51.9,8c1.5,0,2.8,0.7,3.6,1.9C56.5,8.6,57.9,8,59.6,8L59.6,8z"/>
<path class="st2" d="M90.4,8c2.8,0,4.8,2.1,4.8,5.7v8.7c0,0.4-0.3,0.7-0.7,0.7h-2.4c-0.5,0-0.7-0.3-0.7-0.7V14c0-1.7-1-2.5-2.4-2.5
	c-1.5,0-2.7,0.9-2.7,3.1v7.8c0,0.4-0.3,0.7-0.7,0.7h-2.4c-0.5,0-0.7-0.3-0.7-0.7V9.1c0-0.4,0.3-0.7,0.7-0.7h2.4
	c0.5,0,0.7,0.3,0.7,0.7v0.8C87.2,8.6,88.6,8,90.4,8L90.4,8z"/>
<path class="st2" d="M90.4,8c2.8,0,4.8,2.1,4.8,5.7v8.7c0,0.4-0.3,0.7-0.7,0.7h-2.4c-0.5,0-0.7-0.3-0.7-0.7V14c0-1.7-1-2.5-2.4-2.5
	c-1.5,0-2.7,0.9-2.7,3.1v7.8c0,0.4-0.3,0.7-0.7,0.7h-2.4c-0.5,0-0.7-0.3-0.7-0.7V9.1c0-0.4,0.3-0.7,0.7-0.7h2.4
	c0.5,0,0.7,0.3,0.7,0.7v0.8C87.2,8.6,88.6,8,90.4,8L90.4,8z"/>
<path class="st2" d="M112.6,15.7c0,0.3,0,0.6,0,0.9c-0.1,0.4-0.3,0.6-0.8,0.6h-10.5c0.5,2.1,2.1,3.1,4,3.1c1.1,0,2.1-0.4,2.7-1.1
	c0.3-0.2,0.5-0.4,0.9-0.4l2.4,0c0.5,0,0.8,0.3,0.6,0.8c-1.1,2.5-3.6,3.9-6.6,3.9c-4.8,0-8-3.4-8-7.8s3.2-7.8,7.9-7.8
	C109.6,8,112.6,11.4,112.6,15.7L112.6,15.7z M108.8,14.3c-0.4-2.1-2-2.9-3.6-2.9c-2,0-3.4,1.1-3.9,2.9H108.8L108.8,14.3z"/>
<path class="st2" d="M112.6,15.7c0,0.3,0,0.6,0,0.9c-0.1,0.4-0.3,0.6-0.8,0.6h-10.5c0.5,2.1,2.1,3.1,4,3.1c1.1,0,2.1-0.4,2.7-1.1
	c0.3-0.2,0.5-0.4,0.9-0.4l2.4,0c0.5,0,0.8,0.3,0.6,0.8c-1.1,2.5-3.6,3.9-6.6,3.9c-4.8,0-8-3.4-8-7.8s3.2-7.8,7.9-7.8
	C109.6,8,112.6,11.4,112.6,15.7L112.6,15.7z M108.8,14.3c-0.4-2.1-2-2.9-3.6-2.9c-2,0-3.4,1.1-3.9,2.9H108.8L108.8,14.3z"/>
<path class="st2" d="M123.8,8.4h2.6c0.5,0,0.8,0.3,0.6,0.8l-6.6,19.3c-0.1,0.4-0.4,0.6-0.8,0.6H117c-0.5,0-0.8-0.3-0.6-0.8l1.8-5.3
	l-5.4-13.7c-0.2-0.5,0-0.8,0.6-0.8h2.6c0.4,0,0.7,0.2,0.8,0.6l3.3,8.7l2.9-8.7C123.1,8.5,123.4,8.4,123.8,8.4L123.8,8.4z"/>
<path class="st2" d="M123.8,8.4h2.6c0.5,0,0.8,0.3,0.6,0.8l-6.6,19.3c-0.1,0.4-0.4,0.6-0.8,0.6H117c-0.5,0-0.8-0.3-0.6-0.8l1.8-5.3
	l-5.4-13.7c-0.2-0.5,0-0.8,0.6-0.8h2.6c0.4,0,0.7,0.2,0.8,0.6l3.3,8.7l2.9-8.7C123.1,8.5,123.4,8.4,123.8,8.4L123.8,8.4z"/>
<path class="st2" d="M143.7,8c2.8,0,4.6,1.8,4.6,5.2v9.2c0,0.4-0.3,0.7-0.7,0.7h-2.4c-0.5,0-0.7-0.3-0.7-0.7v-9c0-1.5-0.9-2-1.9-2
	c-1,0-2.2,0.6-2.2,2.5v8.4c0,0.4-0.3,0.7-0.7,0.7h-2.4c-0.5,0-0.7-0.3-0.7-0.7v-9c0-1.5-0.9-2-1.9-2s-2.2,0.6-2.2,2.5v8.4
	c0,0.4-0.3,0.7-0.7,0.7h-2.4c-0.5,0-0.7-0.3-0.7-0.7V9.1c0-0.4,0.3-0.7,0.7-0.7h2.4c0.5,0,0.7,0.3,0.7,0.7v0.7
	c0.8-1.2,2.1-1.8,3.6-1.8c1.5,0,2.8,0.7,3.6,1.9C140.6,8.6,141.9,8,143.7,8L143.7,8z"/>
<path class="st2" d="M143.7,8c2.8,0,4.6,1.8,4.6,5.2v9.2c0,0.4-0.3,0.7-0.7,0.7h-2.4c-0.5,0-0.7-0.3-0.7-0.7v-9c0-1.5-0.9-2-1.9-2
	c-1,0-2.2,0.6-2.2,2.5v8.4c0,0.4-0.3,0.7-0.7,0.7h-2.4c-0.5,0-0.7-0.3-0.7-0.7v-9c0-1.5-0.9-2-1.9-2s-2.2,0.6-2.2,2.5v8.4
	c0,0.4-0.3,0.7-0.7,0.7h-2.4c-0.5,0-0.7-0.3-0.7-0.7V9.1c0-0.4,0.3-0.7,0.7-0.7h2.4c0.5,0,0.7,0.3,0.7,0.7v0.7
	c0.8-1.2,2.1-1.8,3.6-1.8c1.5,0,2.8,0.7,3.6,1.9C140.6,8.6,141.9,8,143.7,8L143.7,8z"/>
<path class="st2" d="M165.7,15.7c0,0.3,0,0.6,0,0.9c-0.1,0.4-0.3,0.6-0.8,0.6h-10.5c0.5,2.1,2.1,3.1,4,3.1c1.1,0,2.1-0.4,2.7-1.1
	c0.3-0.2,0.5-0.4,0.9-0.4l2.4,0c0.5,0,0.8,0.3,0.6,0.8c-1.1,2.5-3.6,3.9-6.6,3.9c-4.9,0-8-3.4-8-7.8s3.2-7.8,7.9-7.8
	C162.7,8,165.7,11.4,165.7,15.7L165.7,15.7z M161.9,14.3c-0.4-2.1-2-2.9-3.6-2.9c-2,0-3.4,1.1-3.9,2.9H161.9L161.9,14.3z"/>
<path class="st2" d="M165.7,15.7c0,0.3,0,0.6,0,0.9c-0.1,0.4-0.3,0.6-0.8,0.6h-10.5c0.5,2.1,2.1,3.1,4,3.1c1.1,0,2.1-0.4,2.7-1.1
	c0.3-0.2,0.5-0.4,0.9-0.4l2.4,0c0.5,0,0.8,0.3,0.6,0.8c-1.1,2.5-3.6,3.9-6.6,3.9c-4.9,0-8-3.4-8-7.8s3.2-7.8,7.9-7.8
	C162.7,8,165.7,11.4,165.7,15.7L165.7,15.7z M161.9,14.3c-0.4-2.1-2-2.9-3.6-2.9c-2,0-3.4,1.1-3.9,2.9H161.9L161.9,14.3z"/>
<path class="st2" d="M175.9,8c2.8,0,4.8,2.1,4.8,5.7v8.7c0,0.4-0.3,0.7-0.7,0.7h-2.4c-0.5,0-0.7-0.3-0.7-0.7V14c0-1.7-1-2.5-2.4-2.5
	c-1.5,0-2.7,0.9-2.7,3.1v7.8c0,0.4-0.3,0.7-0.7,0.7h-2.4c-0.5,0-0.7-0.3-0.7-0.7V9.1c0-0.4,0.3-0.7,0.7-0.7h2.4
	c0.5,0,0.7,0.3,0.7,0.7v0.8C172.6,8.6,174,8,175.9,8L175.9,8z"/>
<path class="st2" d="M175.9,8c2.8,0,4.8,2.1,4.8,5.7v8.7c0,0.4-0.3,0.7-0.7,0.7h-2.4c-0.5,0-0.7-0.3-0.7-0.7V14c0-1.7-1-2.5-2.4-2.5
	c-1.5,0-2.7,0.9-2.7,3.1v7.8c0,0.4-0.3,0.7-0.7,0.7h-2.4c-0.5,0-0.7-0.3-0.7-0.7V9.1c0-0.4,0.3-0.7,0.7-0.7h2.4
	c0.5,0,0.7,0.3,0.7,0.7v0.8C172.6,8.6,174,8,175.9,8L175.9,8z"/>
<path class="st2" d="M191,9.1v2.3c0,0.4-0.3,0.7-0.7,0.7h-1.9v10.4c0,0.4-0.3,0.7-0.7,0.7h-2.4c-0.5,0-0.7-0.3-0.7-0.7V12h-1.9
	c-0.5,0-0.7-0.3-0.7-0.7V9.1c0-0.4,0.3-0.7,0.7-0.7h1.9v-4c0-0.4,0.3-0.7,0.7-0.7h2.4c0.5,0,0.7,0.3,0.7,0.7v4h1.9
	C190.7,8.4,191,8.6,191,9.1z"/>
<path class="st2" d="M191,9.1v2.3c0,0.4-0.3,0.7-0.7,0.7h-1.9v10.4c0,0.4-0.3,0.7-0.7,0.7h-2.4c-0.5,0-0.7-0.3-0.7-0.7V12h-1.9
	c-0.5,0-0.7-0.3-0.7-0.7V9.1c0-0.4,0.3-0.7,0.7-0.7h1.9v-4c0-0.4,0.3-0.7,0.7-0.7h2.4c0.5,0,0.7,0.3,0.7,0.7v4h1.9
	C190.7,8.4,191,8.6,191,9.1z"/>
<path class="st0" d="M69.8,9.5h-2.7c-0.3,0-0.5,0.2-0.5,0.5v2.2c0,5.4,4.4,9.7,9.8,9.7h2.7c0.3,0,0.5-0.2,0.5-0.5v-2.2
	C79.6,13.8,75.2,9.5,69.8,9.5z"/>
</svg>
